dist/img/bottle-white.svg

<?xml version="1.0" encoding="UTF-8"?>
<svg width="33px" height="63px" viewBox="0 0 33 63" version="1.1" xmlns="http://www.w3.org/2000/svg" xmlns:xlink="http://www.w3.org/1999/xlink">
    <!-- Generator: sketchtool 52.5 (67469) - http://www.bohemiancoding.com/sketch -->
    <title>51FF7D54-D69D-4A36-861C-4F8E11B28944</title>
    <desc>Created with sketchtool.</desc>
    <g id="Page-1" stroke="none" stroke-width="1" fill="none" fill-rule="evenodd">
        <g id="desktop" transform="translate(-613.000000, -2076.000000)" fill="#FFFFFF" fill-rule="nonzero">
            <path d="M625.526316,2076 C623.465167,2076 621.768421,2077.69675 621.768421,2079.75789 L621.768421,2083.51579 C621.768421,2084.16994 622.000745,2084.84417 622.473026,2085.31645 C622.827237,2085.67066 623.277068,2085.89443 623.764803,2085.98191 C623.580071,2086.12711 623.349741,2086.24242 623.060197,2086.29507 L623.021053,2086.29507 C617.331147,2087.54407 613,2092.56487 613,2098.6648 L613,2102.30526 C613,2103.88238 614.115329,2105.00073 615.505263,2105.55428 L615.505263,2121.60362 C614.115329,2122.15717 613,2123.27552 613,2124.85263 L613,2132.36842 C613,2135.80746 615.824114,2138.63158 619.263158,2138.63158 L639.305263,2138.63158 C642.744307,2138.63158 645.568421,2135.80746 645.568421,2132.36842 L645.568421,2124.85263 C645.568421,2123.27552 644.453092,2122.15717 643.063158,2121.60362 L643.063158,2105.55428 C644.453092,2105.00073 645.568421,2103.88238 645.568421,2102.30526 L645.568421,2098.6648 C645.568421,2092.56487 641.237275,2087.54407 635.547368,2086.29507 L635.508224,2086.29507 C635.21868,2086.24242 634.98835,2086.12711 634.803618,2085.98191 C635.291353,2085.89443 635.741184,2085.67066 636.095395,2085.31645 C636.567676,2084.84417 636.8,2084.16994 636.8,2083.51579 L636.8,2079.75789 C636.8,2077.69675 635.103254,2076 633.042105,2076 L625.526316,2076 Z M625.526316,2078.50526 L633.042105,2078.50526 C633.736746,2078.50526 634.294737,2079.06325 634.294737,2079.75789 L634.294737,2083.51579 L624.273684,2083.51579 L624.273684,2079.75789 C624.273684,2079.06325 624.831675,2078.50526 625.526316,2078.50526 Z M626.348355,2086.02105 L632.220066,2086.02105 C632.67474,2087.33133 633.597987,2088.43876 635.038487,2088.72204 L635.038487,2088.76118 C635.050262,2088.76344 635.065857,2088.75905 635.077632,2088.76118 C639.641046,2089.78014 643.063158,2093.75472 643.063158,2098.6648 L643.063158,2102.30526 C643.063158,2102.9999 642.505167,2103.55789 641.810526,2103.55789 L620.515789,2103.55789 L620.515789,2106.06316 L640.557895,2106.06316 L640.557895,2121.09474 L620.515789,2121.09474 L620.515789,2123.6 L640.557895,2123.6 L641.810526,2123.6 C642.505167,2123.6 643.063158,2124.15799 643.063158,2124.85263 L643.063158,2132.36842 C643.063158,2134.44096 641.377798,2136.12632 639.305263,2136.12632 L619.263158,2136.12632 C617.190623,2136.12632 615.505263,2134.44096 615.505263,2132.36842 L615.505263,2124.85263 C615.505263,2124.15799 616.063254,2123.6 616.757895,2123.6 L618.010526,2123.6 L618.010526,2122.34737 L618.010526,2104.81053 L618.010526,2103.55789 L616.757895,2103.55789 C616.063254,2103.55789 615.505263,2102.9999 615.505263,2102.30526 L615.505263,2098.6648 C615.505263,2093.75472 618.927375,2089.78014 623.490789,2088.76118 C623.509516,2088.7578 623.51132,2088.7257 623.529934,2088.72204 C624.970434,2088.43876 625.893681,2087.33133 626.348355,2086.02105 Z" id="Shape"></path>
        </g>
    </g>
</svg>

<svg width="33" height="63" viewBox="0 0 33 63" xmlns="http://www.w3.org/2000/svg" xmlns:xlink="http://www.w3.org/1999/xlink"><g id="Page-1" stroke="none" stroke-width="1" fill="none" fill-rule="evenodd"><g id="desktop" transform="translate(-613 -2076)" fill="#FFF" fill-rule="nonzero"><path d="M625.526 2076a3.776 3.776 0 0 0-3.758 3.758v3.758c0 .654.233 1.328.705 1.8.354.355.804.578 1.292.666-.185.145-.415.26-.705.313h-.039c-5.69 1.25-10.021 6.27-10.021 12.37v3.64c0 1.577 1.115 2.696 2.505 3.25v16.049c-1.39.553-2.505 1.672-2.505 3.249v7.515c0 3.44 2.824 6.264 6.263 6.264h20.042c3.44 0 6.263-2.825 6.263-6.264v-7.515c0-1.577-1.115-2.696-2.505-3.25v-16.049c1.39-.553 2.505-1.672 2.505-3.249v-3.64c0-6.1-4.33-11.12-10.02-12.37h-.04a1.578 1.578 0 0 1-.704-.313 2.416 2.416 0 0 0 1.291-.666c.473-.472.705-1.146.705-1.8v-3.758a3.776 3.776 0 0 0-3.758-3.758h-7.516zm0 2.505h7.516a1.25 1.25 0 0 1 1.253 1.253v3.758h-10.021v-3.758c0-.695.558-1.253 1.252-1.253zm.822 7.516h5.872c.455 1.31 1.378 2.418 2.818 2.701v.04c.012.001.028-.003.04 0 4.563 1.018 7.985 4.993 7.985 9.903v3.64c0 .695-.558 1.253-1.252 1.253h-21.295v2.505h20.042v15.032h-20.042v2.505h21.295c.694 0 1.252.558 1.252 1.253v7.515a3.762 3.762 0 0 1-3.758 3.758h-20.042a3.762 3.762 0 0 1-3.758-3.758v-7.515a1.25 1.25 0 0 1 1.253-1.253h1.253v-20.042h-1.253a1.249 1.249 0 0 1-1.253-1.253v-3.64c0-4.91 3.422-8.885 7.986-9.904.019-.003.02-.035.039-.039 1.44-.283 2.364-1.39 2.818-2.701z" id="Shape"/></g></g></svg>
